icons/circle/48/tanglet.svg

<svg version="1.1" viewBox="0 0 48 48" xmlns="http://www.w3.org/2000/svg">
 <defs>
  <linearGradient id="linearGradient3958" x2="0" y1="47" y2="1" gradientUnits="userSpaceOnUse">
   <stop style="stop-color:#c9c9df" offset="0"/>
   <stop style="stop-color:#d5d5e7" offset="1"/>
  </linearGradient>
  <radialGradient id="radialGradient4182" cx="24" cy="24" r="12" gradientTransform="matrix(1 -1 1 1 -24 24)" gradientUnits="userSpaceOnUse">
   <stop style="stop-color:#448fe8" offset="0"/>
   <stop style="stop-color:#165db2" offset="1"/>
  </radialGradient>
 </defs>
 <path d="m36.31 5c5.859 4.062 9.688 10.831 9.688 18.5 0 12.426-10.07 22.5-22.5 22.5-7.669 0-14.438-3.828-18.5-9.688 1.037 1.822 2.306 3.499 3.781 4.969 4.085 3.712 9.514 5.969 15.469 5.969 12.703 0 23-10.298 23-23 0-5.954-2.256-11.384-5.969-15.469-1.469-1.475-3.147-2.744-4.969-3.781zm4.969 3.781c3.854 4.113 6.219 9.637 6.219 15.719 0 12.703-10.297 23-23 23-6.081 0-11.606-2.364-15.719-6.219 4.16 4.144 9.883 6.719 16.219 6.719 12.703 0 23-10.298 23-23 0-6.335-2.575-12.06-6.719-16.219z" style="opacity:.05"/>
 <path d="m41.28 8.781c3.712 4.085 5.969 9.514 5.969 15.469 0 12.703-10.297 23-23 23-5.954 0-11.384-2.256-15.469-5.969 4.113 3.854 9.637 6.219 15.719 6.219 12.703 0 23-10.298 23-23 0-6.081-2.364-11.606-6.219-15.719z" style="opacity:.1"/>
 <path d="m31.25 2.375c8.615 3.154 14.75 11.417 14.75 21.13 0 12.426-10.07 22.5-22.5 22.5-9.708 0-17.971-6.135-21.12-14.75a23 23 0 0 0 44.875 -7 23 23 0 0 0 -16 -21.875z" style="opacity:.2"/>
 <path d="m24 1c12.703 0 23 10.297 23 23s-10.297 23-23 23-23-10.297-23-23 10.297-23 23-23z" style="fill:url(#linearGradient3958)"/>
 <path d="m40.03 7.531c3.712 4.084 5.969 9.514 5.969 15.469 0 12.703-10.297 23-23 23-5.954 0-11.384-2.256-15.469-5.969 4.178 4.291 10.01 6.969 16.469 6.969 12.703 0 23-10.298 23-23 0-6.462-2.677-12.291-6.969-16.469z" style="opacity:.1"/>
 <rect x="13" y="13" width="24" height="24" rx="1.5" style="fill-opacity:.098;fill-rule:evenodd"/>
 <rect x="12" y="12" width="24" height="24" rx="1.5" style="fill-rule:evenodd;fill:url(#radialGradient4182)"/>
 <circle cx="24" cy="24" r="11" style="fill-rule:evenodd;fill:#3988e7"/>
 <rect x="22" y="19" width="4" height="13" rx=".5" style="fill:#ececec"/>
 <rect transform="rotate(90)" x="18" y="-31" width="2" height="14" rx=".5" style="fill:#ececec"/>
</svg>

<svg viewBox="0 0 48 48" xmlns="http://www.w3.org/2000/svg">
  <defs>
    <linearGradient id="a" x2="0" y1="47" y2="1" gradientUnits="userSpaceOnUse">
      <stop offset="0" stop-color="#c9c9df"/>
      <stop offset="1" stop-color="#d5d5e7"/>
    </linearGradient>
    <radialGradient id="b" cx="24" cy="24" r="12" gradientTransform="matrix(1 -1 1 1 -24 24)" gradientUnits="userSpaceOnUse">
      <stop offset="0" stop-color="#448fe8"/>
      <stop offset="1" stop-color="#165db2"/>
    </radialGradient>
  </defs>
  <path d="M36.31 5c5.859 4.062 9.688 10.831 9.688 18.5 0 12.426-10.07 22.5-22.5 22.5-7.669 0-14.438-3.828-18.5-9.688a23.24 23.24 0 0 0 3.781 4.969 22.923 22.923 0 0 0 15.469 5.969c12.703 0 23-10.298 23-23a22.92 22.92 0 0 0-5.969-15.469A23.216 23.216 0 0 0 36.31 5zm4.969 3.781A22.911 22.911 0 0 1 47.498 24.5c0 12.703-10.297 23-23 23a22.909 22.909 0 0 1-15.719-6.219C12.939 45.425 18.662 48 24.998 48c12.703 0 23-10.298 23-23 0-6.335-2.575-12.06-6.719-16.219z" opacity=".05"/>
  <path d="M41.28 8.781a22.923 22.923 0 0 1 5.969 15.469c0 12.703-10.297 23-23 23A22.92 22.92 0 0 1 8.78 41.281 22.911 22.911 0 0 0 24.499 47.5c12.703 0 23-10.298 23-23A22.909 22.909 0 0 0 41.28 8.781z" opacity=".1"/>
  <path d="M31.25 2.375C39.865 5.529 46 13.792 46 23.505c0 12.426-10.07 22.5-22.5 22.5-9.708 0-17.971-6.135-21.12-14.75a23 23 0 0 0 44.875-7 23 23 0 0 0-16-21.875z" opacity=".2"/>
  <path d="M24 1c12.703 0 23 10.297 23 23S36.703 47 24 47 1 36.703 1 24 11.297 1 24 1z" fill="url(#a)"/>
  <path d="M40.03 7.531A22.922 22.922 0 0 1 45.999 23c0 12.703-10.297 23-23 23A22.92 22.92 0 0 1 7.53 40.031C11.708 44.322 17.54 47 23.999 47c12.703 0 23-10.298 23-23 0-6.462-2.677-12.291-6.969-16.469z" opacity=".1"/>
  <rect x="13" y="13" width="24" height="24" rx="1.5" fill-opacity=".098" fill-rule="evenodd"/>
  <rect x="12" y="12" width="24" height="24" rx="1.5" fill-rule="evenodd" fill="url(#b)"/>
  <circle cx="24" cy="24" r="11" fill-rule="evenodd" fill="#3988e7"/>
  <rect x="22" y="19" width="4" height="13" rx=".5" fill="#ececec"/>
  <rect transform="rotate(90)" x="18" y="-31" width="2" height="14" rx=".5" fill="#ececec"/>
</svg>
